X:1
T:Partition sans titre
C:Compositeur / Arrangeur
L:1/8
M:3/4
I:linebreak $
K:D
V:1 treble nm="Violon" snm="Vln."
V:1
"Bm" f2 Bc dB | f2 Bc dB |"A7" g2 gB gB |"Bm" Bf f2 g2 |1"Bm" f2 Bc dB | f2 Bc dB |"A7" c3 F F2 | %7
 c2 fe fg :|2"Bm" f2 g2 f2 |"A" e2 d2 c2 |"Bm" B2 FB df | bb b2 f2 |:"D" a2 g2 B2 |"A" c4 B2 | %14
"D" A2 [Af]2 A2 |"G" B3"D" a2 a |1"D" a2 g2 B2 |"A" c2 f2 z c | e2 d2 B2 |"D" A3 a aa :|2 %20
"D" a2 g3 B |"A" c2 f2 e2 |"D" d2 cd fa | [dd']4 g2 |] %24
